src/assets/outline/MessageFavorite.svg

<svg width="24" height="24" viewBox="0 0 24 24"  xmlns="http://www.w3.org/2000/svg">
<path d="M12 22.81C11.31 22.81 10.66 22.46 10.2 21.85L8.7 19.85C8.67 19.81 8.55 19.75 8.49 19.75H8C3.83 19.75 1.25 18.62 1.25 13V8C1.25 3.58 3.58 1.25 8 1.25H12C12.41 1.25 12.75 1.59 12.75 2C12.75 2.41 12.41 2.75 12 2.75H8C4.42 2.75 2.75 4.42 2.75 8V13C2.75 17.52 4.3 18.25 8 18.25H8.5C9.01 18.25 9.59 18.54 9.9 18.95L11.4 20.95C11.75 21.41 12.25 21.41 12.6 20.95L14.1 18.95C14.43 18.51 14.95 18.25 15.5 18.25H16C19.58 18.25 21.25 16.58 21.25 13V8C21.25 7.59 21.59 7.25 22 7.25C22.41 7.25 22.75 7.59 22.75 8V13C22.75 17.42 20.42 19.75 16 19.75H15.5C15.42 19.75 15.35 19.79 15.3 19.85L13.8 21.85C13.34 22.46 12.69 22.81 12 22.81Z" />
<path d="M12 12C11.44 12 11 11.55 11 11C11 10.45 11.45 10 12 10C12.55 10 13 10.45 13 11C13 11.55 12.56 12 12 12Z" />
<path d="M16 12C15.44 12 15 11.55 15 11C15 10.45 15.45 10 16 10C16.55 10 17 10.45 17 11C17 11.55 16.56 12 16 12Z" />
<path d="M8 12C7.44 12 7 11.55 7 11C7 10.45 7.45 10 8 10C8.55 10 9 10.45 9 11C9 11.55 8.56 12 8 12Z" />
<path d="M17.9999 7.74999C17.1399 7.74999 15.1099 6.72999 14.4899 4.85999C14.2399 4.11999 14.2999 3.26999 14.6499 2.59999C14.9599 1.99999 15.48 1.55999 16.12 1.35999C16.77 1.15999 17.4599 1.24999 17.9999 1.57999C18.5399 1.24999 19.2299 1.15999 19.8899 1.35999C20.5299 1.55999 21.05 1.99999 21.36 2.59999C21.71 3.26999 21.77 4.11999 21.52 4.85999C20.89 6.75999 18.7699 7.74999 17.9999 7.74999ZM15.9099 4.37999C16.3299 5.63999 17.76 6.21999 18.02 6.24999C18.31 6.21999 19.71 5.56999 20.1 4.38999C20.22 4.02999 20.19 3.59999 20.03 3.28999C19.9 3.03999 19.71 2.87999 19.45 2.79999C19.17 2.69999 18.79 2.74999 18.62 2.99999C18.48 3.19999 18.26 3.31999 18.02 3.32999C17.78 3.32999 17.5499 3.21999 17.3999 3.02999C17.1899 2.75999 16.8199 2.71999 16.5499 2.79999C16.2899 2.87999 16.1 3.03999 15.97 3.28999C15.82 3.59999 15.7899 4.01999 15.9099 4.37999Z" />
</svg>

<?xml version="1.0" encoding="UTF-8"?>
<svg width="24" height="24" viewBox="0 0 24 24" xmlns="http://www.w3.org/2000/svg">
 <path d="m12 22.81c-0.69 0-1.34-0.35-1.8-0.96l-1.5-2c-0.03-0.04-0.15-0.1-0.21-0.1h-0.49c-4.17 0-6.75-1.13-6.75-6.75v-5c0-4.42 2.33-6.75 6.75-6.75h4c0.41 0 0.75 0.34 0.75 0.75s-0.34 0.75-0.75 0.75h-4c-3.58 0-5.25 1.67-5.25 5.25v5c0 4.52 1.55 5.25 5.25 5.25h0.5c0.51 0 1.09 0.29 1.4 0.7l1.5 2c0.35 0.46 0.85 0.46 1.2 0l1.5-2c0.33-0.44 0.85-0.7 1.4-0.7h0.5c3.58 0 5.25-1.67 5.25-5.25v-5c0-0.41 0.34-0.75 0.75-0.75s0.75 0.34 0.75 0.75v5c0 4.42-2.33 6.75-6.75 6.75h-0.5c-0.08 0-0.15 0.04-0.2 0.1l-1.5 2c-0.46 0.61-1.11 0.96-1.8 0.96z"/>
 <path d="m12 12c-0.56 0-1-0.45-1-1s0.45-1 1-1 1 0.45 1 1-0.44 1-1 1z"/>
 <path d="m16 12c-0.56 0-1-0.45-1-1s0.45-1 1-1 1 0.45 1 1-0.44 1-1 1z"/>
 <path d="m8 12c-0.56 0-1-0.45-1-1s0.45-1 1-1 1 0.45 1 1-0.44 1-1 1z"/>
 <path d="m18 7.75c-0.86 0-2.89-1.02-3.51-2.89-0.25-0.74-0.19-1.59 0.16-2.26 0.31-0.6 0.8301-1.04 1.4701-1.24 0.65-0.2 1.3399-0.11 1.8799 0.22 0.54-0.33 1.23-0.42 1.89-0.22 0.64 0.2 1.1601 0.64 1.4701 1.24 0.35 0.67 0.41 1.52 0.16 2.26-0.63 1.9-2.7501 2.89-3.5201 2.89zm-2.09-3.37c0.42 1.26 1.8501 1.84 2.1101 1.87 0.29-0.03 1.69-0.68 2.08-1.86 0.12-0.36 0.09-0.79-0.07-1.1-0.13-0.25-0.32-0.41-0.58-0.49-0.28-0.1-0.66-0.05-0.83 0.2-0.14 0.2-0.36 0.32-0.6 0.33-0.24 0-0.4701-0.11-0.6201-0.3-0.21-0.27-0.58-0.31-0.85-0.23-0.26 0.08-0.4499 0.24-0.5799 0.49-0.15 0.31-0.1801 0.73-0.0601 1.09z"/>
</svg>
